REACT_GL/src/assets/SmallLogo.svg

<svg fill="none" height="207" viewBox="0 0 189 207" width="189" xmlns="http://www.w3.org/2000/svg" xmlns:xlink="http://www.w3.org/1999/xlink"><clipPath id="a"><rect height="147" rx="15" width="129" x="31" y="32"/></clipPath><rect height="192" rx="7.5" stroke="#000" stroke-width="15" width="174" x="7.5" y="7.5"/><g clip-path="url(#a)"><path d="m78.65 32.1396c5.8933 0 10.7033.8234 14.43 2.4701 3.7267 1.6466 7.063 3.64 10.01 5.98 1.04.78 1.907 1.17 2.6 1.17 1.647 0 2.73-2.6 3.25-7.8h2.99c-.173 3.38-.303 7.4966-.39 12.35-.087 4.7667-.13 11.1367-.13 19.11h-2.99c-.607-5.2-1.56-9.7067-2.86-13.52-1.213-3.9-3.51-7.2367-6.89-10.01-2.08-1.9934-4.68-3.5534-7.8-4.68-3.0333-1.1267-6.11-1.6901-9.23-1.6901-4.7667 0-8.84 1.2567-12.22 3.77-3.38 2.4267-6.1533 5.7634-8.32 10.0101s-3.77 9.0567-4.81 14.43c-1.04 5.2867-1.56 10.79-1.56 16.51 0 15.6 2.1233 26.9963 6.37 34.1903 4.3333 7.193 10.53 10.79 18.59 10.79 2.08 0 3.9-.26 5.46-.78s2.8167-1.127 3.77-1.82c1.2133-.867 2.0367-1.777 2.47-2.73.4333-1.04.65-2.384.65-4.03v-12.74c0-3.987-.3467-6.9336-1.04-8.8403-.6067-1.9933-1.8633-3.3367-3.77-4.03s-4.68-1.0833-8.32-1.17v-2.6c1.82.0867 3.9867.1733 6.5.26 2.6 0 5.2867.0433 8.06.13h7.67c3.64 0 6.977-.0433 10.01-.13s5.503-.1733 7.41-.26v2.6c-1.647.0867-2.903.39-3.77.91-.78.52-1.343 1.56-1.69 3.12-.26 1.56-.39 3.9433-.39 7.1503v25.74h-2.6c-.087-1.474-.433-3.077-1.04-4.81-.52-1.734-1.43-2.6-2.73-2.6-.607 0-1.43.173-2.47.52-.953.26-2.47.996-4.55 2.21-3.2067 1.82-6.5867 3.38-10.14 4.68-3.5533 1.213-7.28 1.82-11.18 1.82-10.0533 0-18.5467-1.864-25.48-5.59-6.9333-3.727-12.1767-9.057-15.73-15.99-3.4667-7.0203-5.2-15.427-5.2-25.2203 0-9.88 1.9933-18.46 5.98-25.74 4.0733-7.28 9.62-12.9567 16.64-17.03 7.1067-4.0734 15.2533-6.1101 24.44-6.1101z" fill="#66952f"/><path d="m125.82 86v3.5601c-2.947.0867-5.2.4333-6.76 1.04-1.473.52-2.47 1.56-2.99 3.12-.52 1.4733-.78 3.8133-.78 7.0199v65c0 2.947.217 5.157.65 6.63.52 1.473 1.473 2.47 2.86 2.99 1.473.433 3.553.65 6.24.65h8.45c3.727 0 6.847-.52 9.36-1.56 2.6-1.04 4.767-2.6 6.5-4.68s3.077-4.767 4.03-8.06 1.69-7.15 2.21-11.57h2.99c-.26 2.773-.39 6.413-.39 10.92 0 1.733.043 4.29.13 7.67.173 3.293.433 6.717.78 10.27-4.42-.173-9.403-.26-14.95-.26-5.547-.087-10.487-.13-14.82-.13-1.993 0-4.55 0-7.67 0s-6.5.043-10.14.13c-3.553 0-7.193.043-10.92.13-3.64 0-7.15.043-10.53.13v-2.6c2.9467-.173 5.1567-.52 6.63-1.04s2.4267-1.56 2.86-3.12c.52-1.56.78-3.9.78-7.02v-64.48c0-3.2066-.26-5.5466-.78-7.0199-.4333-1.56-1.43-2.6-2.99-3.12-1.4733-.6067-3.64-.9533-6.5-1.04v-2.7872c1.9933.0867 4.5529-.0868 7.6729-.0001 3.2071.0867 6.6171 0 10.2571 0 3.293 0 6.793-.1861 10-.2728 3.293-.0867 5.74-.4133 7.82-.5z" fill="#090909"/></g></svg>

<svg width="189" height="207" viewBox="0 0 189 207" fill="none" xmlns="http://www.w3.org/2000/svg">
<rect x="7.5" y="7.5" width="174" height="192" rx="7.5" stroke="black" stroke-width="15"/>
<g clip-path="url(#clip0_377_286)">
<path d="M78.65 32.1396C84.5433 32.1396 89.3533 32.963 93.08 34.6097C96.8067 36.2563 100.143 38.2497 103.09 40.5897C104.13 41.3697 104.997 41.7597 105.69 41.7597C107.337 41.7597 108.42 39.1597 108.94 33.9597H111.93C111.757 37.3397 111.627 41.4563 111.54 46.3097C111.453 51.0764 111.41 57.4464 111.41 65.4197H108.42C107.813 60.2197 106.86 55.713 105.56 51.8997C104.347 47.9997 102.05 44.663 98.67 41.8897C96.59 39.8963 93.99 38.3363 90.87 37.2097C87.8367 36.083 84.76 35.5196 81.64 35.5196C76.8733 35.5196 72.8 36.7763 69.42 39.2896C66.04 41.7163 63.2667 45.053 61.1 49.2997C58.9333 53.5464 57.33 58.3564 56.29 63.7297C55.25 69.0164 54.73 74.5197 54.73 80.2397C54.73 95.8397 56.8533 107.236 61.1 114.43C65.4333 121.623 71.63 125.22 79.69 125.22C81.77 125.22 83.59 124.96 85.15 124.44C86.71 123.92 87.9667 123.313 88.92 122.62C90.1333 121.753 90.9567 120.843 91.39 119.89C91.8233 118.85 92.04 117.506 92.04 115.86V103.12C92.04 99.133 91.6933 96.1864 91 94.2797C90.3933 92.2864 89.1367 90.943 87.23 90.2497C85.3233 89.5564 82.55 89.1664 78.91 89.0797V86.4797C80.73 86.5664 82.8967 86.653 85.41 86.7397C88.01 86.7397 90.6967 86.783 93.47 86.8697C96.2433 86.8697 98.8 86.8697 101.14 86.8697C104.78 86.8697 108.117 86.8264 111.15 86.7397C114.183 86.653 116.653 86.5664 118.56 86.4797V89.0797C116.913 89.1664 115.657 89.4697 114.79 89.9897C114.01 90.5097 113.447 91.5497 113.1 93.1097C112.84 94.6697 112.71 97.053 112.71 100.26V126H110.11C110.023 124.526 109.677 122.923 109.07 121.19C108.55 119.456 107.64 118.59 106.34 118.59C105.733 118.59 104.91 118.763 103.87 119.11C102.917 119.37 101.4 120.106 99.32 121.32C96.1133 123.14 92.7333 124.7 89.18 126C85.6267 127.213 81.9 127.82 78 127.82C67.9467 127.82 59.4533 125.956 52.52 122.23C45.5867 118.503 40.3433 113.173 36.79 106.24C33.3233 99.2197 31.59 90.813 31.59 81.0197C31.59 71.1397 33.5833 62.5597 37.57 55.2797C41.6433 47.9997 47.19 42.323 54.21 38.2497C61.3167 34.1763 69.4633 32.1396 78.65 32.1396Z" fill="#66952F"/>
<path d="M125.82 86V89.5601C122.873 89.6468 120.62 89.9934 119.06 90.6001C117.587 91.1201 116.59 92.1601 116.07 93.7201C115.55 95.1934 115.29 97.5334 115.29 100.74V165.74C115.29 168.687 115.507 170.897 115.94 172.37C116.46 173.843 117.413 174.84 118.8 175.36C120.273 175.793 122.353 176.01 125.04 176.01H133.49C137.217 176.01 140.337 175.49 142.85 174.45C145.45 173.41 147.617 171.85 149.35 169.77C151.083 167.69 152.427 165.003 153.38 161.71C154.333 158.417 155.07 154.56 155.59 150.14H158.58C158.32 152.913 158.19 156.553 158.19 161.06C158.19 162.793 158.233 165.35 158.32 168.73C158.493 172.023 158.753 175.447 159.1 179C154.68 178.827 149.697 178.74 144.15 178.74C138.603 178.653 133.663 178.61 129.33 178.61C127.337 178.61 124.78 178.61 121.66 178.61C118.54 178.61 115.16 178.653 111.52 178.74C107.967 178.74 104.327 178.783 100.6 178.87C96.96 178.87 93.45 178.913 90.07 179V176.4C93.0167 176.227 95.2267 175.88 96.7 175.36C98.1733 174.84 99.1267 173.8 99.56 172.24C100.08 170.68 100.34 168.34 100.34 165.22V100.74C100.34 97.5334 100.08 95.1934 99.56 93.7201C99.1267 92.1601 98.13 91.1201 96.57 90.6001C95.0967 89.9934 92.93 89.6468 90.07 89.5601V86.7729C92.0633 86.8596 94.6229 86.6861 97.7429 86.7728C100.95 86.8595 104.36 86.7728 108 86.7728C111.293 86.7728 114.793 86.5867 118 86.5C121.293 86.4133 123.74 86.0867 125.82 86Z" fill="#090909"/>
</g>
<defs>
<clipPath id="clip0_377_286">
<rect x="31" y="32" width="129" height="147" rx="15" fill="white"/>
</clipPath>
</defs>
</svg>
